X:30
T:Donkey Riding
R:Reel
M:4/4
K:Am
"Am"A2e2e2e2|"Dm"fed2"Am"e4|"E7"e2d2d2cd|"E7"e2d2d4|
"Am"A2e2e2e2|"Dm"fed2"Am"e4|"Am"cBA2"G"B2G2|"Am"A4A4:|
|:"Am"a4"G"g4|"Dm (F)"fed2"E7"e4|"Am"e2d2"G"d2cd|"C"e2d2"E7"d4|
"Am"a4"G"g4|"Dm (F)"fed2"E7"e4|"Am"cBA2"G"B2G2|"Am"A4A4:|
